X: 212
T:TheTroutbeck Hornpipe
M:2/4
L:1/16
Q:90
S:c1825, Browne Coll. Ambleside
K:G
D2|G2G2 GFGA|BcAB G3g|e2e2 efge|dedc BAGF|
G2G2 GFGA|BcAB G3g|efge dBcA|G2G2G2::
D2|A2A2 A^GAB|cdBc A2A2|B2B2 BAB""c|decd B2d2|
g2g2 bagf|e2e2 gfge|edcB cBAG|FGAF D2EF|
%%vskip .5cm
